; HEADER_BLOCK_START
; generated by OrcaSlicer 2.2.0 on 2025-02-04 at 10:53:13
; total layer number: 5
; filament_density: 0
; filament_diameter: 1.75
; max_z_height: 1.00
; HEADER_BLOCK_END

; THUMBNAIL_BLOCK_START

;
; THUMBNAIL_BLOCK_END

; THUMBNAIL_BLOCK_START

;
; THUMBNAIL_BLOCK_END

; external perimeters extrusion width = 0.40mm
; perimeters extrusion width = 0.45mm
; infill extrusion width = 0.45mm
; solid infill extrusion width = 0.40mm
; top infill extrusion width = 0.40mm
; first layer extrusion width = 0.50mm

; EXECUTABLE_BLOCK_START
M73 P0 R65
M201 X500 Y500 Z500 E5000
M203 X500 Y500 Z10 E60
M204 P500 R1000 T500
M205 X8.00 Y8.00 Z0.40 E5.00 ; sets the jerk limits, mm/sec
;TYPE:Custom
G90 ; use absolute coordinates
M83 ; extruder relative mode
M140 S65 ; set final bed temp
M104 S150 ; set temporary nozzle temp to prevent oozing during homing
G4 S10 ; allow partial nozzle warmup
G28 ; home all axis
G1 Z50 F240
G1 X2 Y10 F3000
M73 P0 R64
M104 S225 ; set final nozzle temp
M190 S65 ; wait for bed temp to stabilize
M109 S225 ; wait for nozzle temp to stabilize
M73 P0 R64
G1 Z0.28 F240
G92 E0
G1 Y140 E10 F1500 ; prime the nozzle
G1 X2.3 F5000
G92 E0
G1 Y10 E10 F1200 ; prime the nozzle
G92 E0
G90
G21
M83 ; use relative distances for extrusion
M106 S0
;LAYER_CHANGE
;Z:0.2
;HEIGHT:0.2
;BEFORE_LAYER_CHANGE
;0.2
G92 E0

G1 E-5 F3600
;_SET_FAN_SPEED_CHANGING_LAYER
M204 S200
; printing object luminatura_adapter-Body.step id:0 copy 0
G1 Z.6 F9000
G1 X109.352 Y156.298
G1 Z.6
M73 P1 R64
M73 P1 R64
G1 Z.2
G1 E5 F2400
;TYPE:Inner wall
;WIDTH:0.499999
G1 F900
G1 X108.72 Y156.289 E.02402
G1 X107.795 Y156.255 E.03515
G1 X107 Y156.21 E.03027
G1 X105.598 Y156.098 E.05348
G1 X104.321 Y155.957 E.04879
G1 X103.412 Y155.837 E.03488
G1 X102.14 Y155.635 E.04895
G1 X101.172 Y155.458 E.03738
G1 X99.078 Y155.001 E.08148
G1 X97.834 Y154.68 E.04883
G1 X96.882 Y154.411 E.03758
G1 X95.72 Y154.05 E.04625
G1 X94.783 Y153.736 E.03757
G1 X93.473 Y153.258 E.05299
G1 X92.271 Y152.779 E.0492
G1 X91.362 Y152.391 E.03756
G1 X90.097 Y151.812 E.05286
G1 X88.933 Y151.237 E.04935
G1 X88.13 Y150.818 E.03443
G1 X87.414 Y150.426 E.03099
G1 X86.213 Y149.731 E.05277
G1 X85.105 Y149.046 E.0495
G1 X84.351 Y148.556 E.03417
G1 X83.274 Y147.816 E.04968
G1 X82.546 Y147.292 E.03409
G1 X81.503 Y146.5 E.04976
G1 X80.802 Y145.943 E.03402
G1 X79.797 Y145.102 E.04983
G1 X79.125 Y144.513 E.03394
G1 X78.16 Y143.624 E.04988
G1 X77.453 Y142.94 E.03738
G1 X75.98 Y141.417 E.08056
G1 X75.106 Y140.442 E.04975
G1 X74.463 Y139.69 E.03758
G1 X73.696 Y138.746 E.04624
G1 X73.09 Y137.965 E.03757
G1 X72.279 Y136.861 E.05207
G1 X71.53 Y135.776 E.05012
G1 X70.988 Y134.949 E.03755
G1 X70.269 Y133.787 E.05194
G1 X69.606 Y132.642 E.05028
G1 X69.182 Y131.869 E.0335
G1 X68.792 Y131.125 E.03192
G1 X68.186 Y129.9 E.05196
G1 X67.833 Y129.139 E.03189
G1 X67.287 Y127.888 E.05188
G1 X66.969 Y127.109 E.03197
G1 X66.485 Y125.838 E.05168
G1 X66.049 Y124.582 E.05055
G1 X65.747 Y123.64 E.03758
G1 X65.404 Y122.473 E.04624
G1 X65.148 Y121.518 E.03757
G1 X64.83 Y120.202 E.05144
G1 X64.555 Y118.895 E.05075
G1 X64.278 Y117.339 E.06009
G1 X64.218 Y116.819 E.01988
G1 X64.063 Y115.85 E.03732
G1 X63.837 Y113.657 E.08377
G1 X63.716 Y111.47 E.08327
G1 X63.699 Y109.273 E.08348
G1 X63.792 Y107.294 E.07531
G1 X63.977 Y104.876 E.09218
G1 X64.276 Y102.67 E.08459
G1 X64.555 Y101.105 E.06043
G1 X64.83 Y99.798 E.05075
G1 X65.148 Y98.482 E.05144
G1 X65.404 Y97.527 E.03757
G1 X65.747 Y96.36 E.04624
G1 X66.049 Y95.418 E.03758
G1 X66.485 Y94.162 E.05055
G1 X66.969 Y92.891 E.05168
G1 X67.287 Y92.112 E.03197
G1 X67.833 Y90.861 E.05188
G1 X68.186 Y90.1 E.03189
G1 X68.792 Y88.875 E.05196
G1 X69.182 Y88.131 E.03192
G1 X69.606 Y87.358 E.0335
G1 X70.269 Y86.213 E.05028
G1 X70.988 Y85.051 E.05194
G1 X71.53 Y84.224 E.03755
G1 X72.279 Y83.139 E.05012
G1 X73.09 Y82.035 E.05207
G1 X73.696 Y81.254 E.03757
G1 X74.463 Y80.31 E.04624
G1 X75.106 Y79.558 E.03758
G1 X75.98 Y78.583 E.04975
G1 X77.453 Y77.06 E.08056
G1 X78.16 Y76.376 E.03738
G1 X79.125 Y75.487 E.04988
G1 X79.797 Y74.898 E.03394
G1 X80.802 Y74.057 E.04983
G1 X81.503 Y73.5 E.03402
G1 X82.546 Y72.708 E.04976
G1 X83.274 Y72.184 E.03409
G1 X84.351 Y71.444 E.04968
G1 X85.105 Y70.954 E.03417
G1 X86.213 Y70.269 E.0495
G1 X87.414 Y69.574 E.05277
G1 X88.13 Y69.182 E.03099
G1 X88.933 Y68.763 E.03443
G1 X90.097 Y68.188 E.04935
G1 X91.362 Y67.609 E.05286
G1 X92.271 Y67.221 E.03756
G1 X93.473 Y66.742 E.0492
G1 X94.783 Y66.264 E.05299
G1 X95.72 Y65.95 E.03757
G1 X96.882 Y65.589 E.04625
G1 X97.834 Y65.32 E.03758
G1 X99.078 Y64.999 E.04883
G1 X101.172 Y64.542 E.08148
G1 X102.14 Y64.365 E.03738
G1 X103.412 Y64.163 E.04895
G1 X104.321 Y64.043 E.03488
G1 X105.598 Y63.902 E.04879
G1 X107.792 Y63.745 E.08363
G1 X109.664 Y63.695 E.07116
G1 X110.156 Y63.759 E.01887
G1 X111.739 Y63.798 E.06016
G1 X113.788 Y63.91 E.07798
G1 X114.848 Y64.02 E.04051
G1 X116.735 Y64.251 E.07225
G1 X118.305 Y64.517 E.06053
G1 X119.746 Y64.804 E.05583
G1 X121.754 Y65.275 E.07841
G1 X124.003 Y65.937 E.0891
G1 X124.701 Y66.165 E.02792
G1 X126.203 Y66.697 E.06057
G1 X128.016 Y67.411 E.07405
G1 X128.491 Y67.622 E.01973
G1 X128.964 Y67.806 E.0193
G1 X130.071 Y68.321 E.04639
G1 X131.277 Y68.915 E.05111
G1 X132.677 Y69.679 E.06062
G1 X134 Y70.453 E.05824
G1 X134.688 Y70.879 E.03077
G1 X136.41 Y72.019 E.07848
G1 X138.189 Y73.32 E.08376
G1 X139.009 Y73.965 E.03967
G1 X139.904 Y74.704 E.04409
G1 X141.551 Y76.169 E.08376
G1 X142.961 Y77.54 E.07475
G1 X143.104 Y77.624 E.00632
G1 X144.502 Y79.132 E.07814
G1 X145.932 Y80.81 E.08379
G1 X147.281 Y82.553 E.08378
G1 X148.546 Y84.359 E.08379
G1 X149.64 Y86.087 E.07773
G1 X150.863 Y88.22 E.09344
G1 X151.814 Y90.101 E.08013
G1 X152.423 Y91.435 E.05571
G1 X152.894 Y92.554 E.04613
G1 X153.257 Y93.471 E.03752
G1 X153.759 Y94.85 E.05575
G1 X154.432 Y96.954 E.08395
G1 X155.002 Y99.083 E.08377
G1 X155.471 Y101.236 E.08376
G1 X155.836 Y103.41 E.08377
G1 X156.098 Y105.598 E.08377
G1 X156.255 Y107.797 E.08377
G1 X156.307 Y110.033 E.08503
G1 X156.255 Y112.207 E.08263
G1 X156.097 Y114.408 E.08389
G1 X155.933 Y115.877 E.05617
G1 X155.723 Y117.335 E.05599
G1 X155.322 Y119.503 E.0838
G1 X154.995 Y120.949 E.05634
G1 X154.726 Y121.992 E.04094
G1 X154.193 Y123.766 E.07039
G1 X153.488 Y125.855 E.08379
G1 X152.683 Y127.907 E.08379
G1 X151.782 Y129.92 E.0838
G1 X151.127 Y131.24 E.05601
G1 X150.361 Y132.683 E.0621
G1 X150.061 Y133.159 E.02138
G1 X149.62 Y133.954 E.03455
G1 X149.32 Y134.397 E.02036
G1 X148.841 Y135.197 E.03543
G1 X148.529 Y135.628 E.0202
G1 X148.438 Y135.809 E.00772
G1 X148.117 Y136.236 E.02029
G1 X148.025 Y136.414 E.00762
G1 X147.673 Y136.869 E.02184
G1 X147.171 Y137.603 E.03383
G1 X146.825 Y138.021 E.02063
G1 X146.73 Y138.188 E.00728
G1 X146.375 Y138.603 E.02074
G1 X145.82 Y139.336 E.03495
G1 X145.389 Y139.815 E.02451
G1 X144.874 Y140.455 E.03122
G1 X144.56 Y140.778 E.01712
G1 X144.388 Y141.004 E.01079
G1 X144.048 Y141.342 E.01824
G1 X143.892 Y141.545 E.00969
G1 X143.525 Y141.899 E.01938
G1 X143.404 Y142.059 E.00767
G1 X142.942 Y142.473 E.02357
G1 X142.851 Y142.62 E.00655
G1 X142.458 Y142.958 E.0197
G1 X142.328 Y143.138 E.00844
G1 X141.938 Y143.464 E.01931
G1 X141.797 Y143.648 E.00883
G1 X141.403 Y143.967 E.01926
G1 X141.258 Y144.15 E.00888
G1 X140.859 Y144.461 E.01921
G1 X140.71 Y144.642 E.00892
G1 X140.308 Y144.947 E.01916
G1 X140.156 Y145.126 E.00897
G1 X139.75 Y145.423 E.01911
G1 X139.59 Y145.603 E.00914
G1 X139.183 Y145.891 E.01894
G1 X139.017 Y146.072 E.00935
G1 X138.61 Y146.35 E.01872
G1 X138.435 Y146.532 E.00956
G1 X138.029 Y146.8 E.01851
G1 X137.847 Y146.982 E.00978
G1 X137.441 Y147.24 E.01829
G1 X137.251 Y147.422 E.00999
G1 X136.846 Y147.671 E.01807
G1 X136.649 Y147.853 E.01019
G1 X136.245 Y148.093 E.01787
G1 X136.041 Y148.274 E.01037
G1 X135.637 Y148.505 E.01768
G1 X135.426 Y148.685 E.01054
G1 X135.022 Y148.907 E.01751
G1 X134.805 Y149.085 E.01068
G1 X134.401 Y149.3 E.01737
G1 X134.179 Y149.476 E.01078
G1 X133.774 Y149.682 E.01727
G1 X133.547 Y149.856 E.01085
G1 X133.141 Y150.055 E.0172
G1 X132.911 Y150.225 E.01089
G1 X132.502 Y150.417 E.01716
G1 X132.269 Y150.584 E.01087
G1 X131.857 Y150.769 E.01717
G1 X131.623 Y150.932 E.01084
G1 X131.207 Y151.111 E.01721
G1 X130.972 Y151.269 E.01077
G1 X130.552 Y151.443 E.01728
G1 X130.316 Y151.596 E.01068
G1 X129.891 Y151.764 E.01737
G1 X129.656 Y151.913 E.01058
G1 X128.821 Y152.231 E.03396
G1 X127.059 Y152.976 E.07271
G1 X126.101 Y153.341 E.03894
G1 X124.753 Y153.819 E.05438
G1 X123.798 Y154.128 E.03813
G1 X122.612 Y154.482 E.04706
G1 X121.192 Y154.86 E.05583
G1 X120.331 Y155.066 E.03366
G1 X119.042 Y155.342 E.05008
G1 X117.598 Y155.606 E.05583
G1 X116.145 Y155.825 E.05583
G1 X114.933 Y155.976 E.04643
G1 X112.616 Y156.168 E.08837
G1 X110.482 Y156.244 E.08114
G1 X110.319 Y156.302 E.00659
G1 X109.998 Y156.308 E.01219
G1 X109.392 Y156.299 E.02305
G1 X109.499 Y156.758 F9000
G1 F900
G1 X108.708 Y156.746 E.03006
G1 X107.774 Y156.712 E.03552
G1 X106.969 Y156.666 E.03065
G1 X105.554 Y156.553 E.05394
G1 X104.266 Y156.411 E.04925
G1 X103.346 Y156.289 E.03529
G1 X102.063 Y156.086 E.04937
G1 X101.082 Y155.906 E.03788
G1 X98.972 Y155.446 E.0821
G1 X97.714 Y155.121 E.04936
G1 X96.752 Y154.849 E.038
G1 X95.58 Y154.485 E.04666
G1 X94.632 Y154.167 E.03799
G1 X93.31 Y153.685 E.05348
G1 X92.096 Y153.201 E.04966
G1 X91.177 Y152.809 E.03799
G1 X89.901 Y152.225 E.05334
G1 X88.726 Y151.645 E.04981
G1 X87.914 Y151.221 E.0348
G1 X87.19 Y150.824 E.03137
G1 X85.978 Y150.123 E.05323
G1 X84.86 Y149.432 E.04995
G1 X84.097 Y148.936 E.03458
G1 X83.011 Y148.19 E.0501
G1 X82.274 Y147.659 E.0345
G1 X81.222 Y146.861 E.05017
G1 X80.513 Y146.297 E.03443
G1 X79.5 Y145.449 E.05024
G1 X78.82 Y144.853 E.03435
G1 X77.846 Y143.956 E.05031
G1 X77.13 Y143.264 E.03788
G1 X75.645 Y141.728 E.08118
G1 X74.762 Y140.743 E.05028
G1 X74.112 Y139.983 E.03801
G1 X73.338 Y139.03 E.04666
G1 X72.725 Y138.24 E.038
G1 X71.907 Y137.126 E.05254
G1 X71.15 Y136.031 E.05059
G1 X70.603 Y135.195 E.03799
G1 X69.877 Y134.022 E.05242
G1 X69.208 Y132.867 E.05074
G1 X68.779 Y132.085 E.03387
G1 X68.385 Y131.333 E.0323
G1 X67.774 Y130.098 E.05237
G1 X67.416 Y129.327 E.0323
G1 X66.866 Y128.066 E.05229
G1 X66.544 Y127.277 E.03239
G1 X66.056 Y125.995 E.05214
G1 X65.615 Y124.726 E.05102
G1 X65.31 Y123.774 E.038
G1 X64.964 Y122.596 E.04666
G1 X64.705 Y121.631 E.038
G1 X64.384 Y120.303 E.05192
G1 X64.107 Y118.984 E.05122
G1 X63.825 Y117.402 E.06106
G1 X63.766 Y116.891 E.01956
G1 X63.611 Y115.913 E.03766
G1 X63.382 Y113.699 E.0846
G1 X63.259 Y111.484 E.08429
G1 X63.242 Y109.263 E.08443
G1 X63.336 Y107.267 E.07593
G1 X63.523 Y104.822 E.09322
G1 X63.824 Y102.603 E.0851
G1 X64.107 Y101.016 E.06126
G1 X64.384 Y99.697 E.05122
G1 X64.705 Y98.369 E.05192
G1 X64.964 Y97.404 E.038
G1 X65.31 Y96.226 E.04666
G1 X65.615 Y95.274 E.038
G1 X66.056 Y94.005 E.05102
G1 X66.544 Y92.723 E.05214
G1 X66.866 Y91.934 E.03239
G1 X67.416 Y90.673 E.05229
G1 X67.774 Y89.902 E.0323
G1 X68.385 Y88.667 E.05237
G1 X68.779 Y87.915 E.0323
G1 X69.208 Y87.133 E.03386
G1 X69.877 Y85.978 E.05074
G1 X70.603 Y84.805 E.05242
G1 X71.15 Y83.969 E.03799
G1 X71.907 Y82.874 E.05059
G1 X72.725 Y81.76 E.05254
G1 X73.338 Y80.97 E.038
G1 X74.112 Y80.017 E.04666
G1 X74.762 Y79.257 E.03801
G1 X75.645 Y78.272 E.05028
G1 X77.13 Y76.736 E.08118
G1 X77.846 Y76.044 E.03788
G1 X78.82 Y75.147 E.05031
G1 X79.5 Y74.551 E.03435
G1 X80.513 Y73.703 E.05024
G1 X81.222 Y73.139 E.03443
G1 X82.274 Y72.341 E.05017
G1 X83.011 Y71.81 E.0345
G1 X84.097 Y71.064 E.0501
G1 X84.86 Y70.568 E.03458
G1 X85.978 Y69.877 E.04995
G1 X87.19 Y69.176 E.05323
G1 X87.914 Y68.779 E.03137
G1 X88.726 Y68.355 E.0348
G1 X89.901 Y67.775 E.04981
G1 X91.177 Y67.191 E.05334
G1 X92.096 Y66.799 E.03799
G1 X93.31 Y66.315 E.04966
G1 X94.632 Y65.833 E.05348
G1 X95.58 Y65.515 E.03799
G1 X96.752 Y65.151 E.04666
G1 X97.714 Y64.879 E.038
G1 X98.972 Y64.554 E.04936
G1 X101.082 Y64.094 E.0821
G1 X102.063 Y63.914 E.03788
G1 X103.346 Y63.711 E.04937
G1 X104.266 Y63.589 E.03529
G1 X105.554 Y63.447 E.04925
G1 X106.969 Y63.334 E.05394
G1 X107.772 Y63.288 E.03058
G1 X109.912 Y63.236 E.08136
G1 X110.139 Y63.294 E.00888
G1 X112.498 Y63.375 E.08972
G1 X113.888 Y63.464 E.05292
G1 X114.895 Y63.565 E.03847
G1 X116.766 Y63.78 E.07159
G1 X119.117 Y64.207 E.09079
G1 X121.857 Y64.818 E.10671
G1 X123.434 Y65.282 E.06247
G1 X124.848 Y65.732 E.05638
G1 X125.679 Y66.019 E.03346
G1 X128.177 Y66.972 E.10161
G1 X128.67 Y67.202 E.02069
G1 X129.151 Y67.388 E.01958
G1 X129.751 Y67.664 E.0251
G1 X131.49 Y68.504 E.07341
G1 X132.903 Y69.282 E.06127
G1 X134.238 Y70.062 E.05879
G1 X136.059 Y71.226 E.08215
G1 X137.877 Y72.511 E.08459
G1 X138.892 Y73.285 E.0485
G1 X139.772 Y73.999 E.04309
M73 P1 R63
M73 P1 R63
G1 X141.317 Y75.334 E.07759
G1 X142.402 Y76.346 E.05639
G1 X143.284 Y77.216 E.04711
G1 X143.405 Y77.277 E.00513
G1 X144.843 Y78.827 E.08036
G1 X146.287 Y80.521 E.08462
G1 X147.649 Y82.282 E.08461
G1 X148.926 Y84.106 E.08462
G1 X150.03 Y85.849 E.07842
G1 X151.252 Y87.977 E.09326
G1 X152.226 Y89.903 E.08204
G1 X152.842 Y91.251 E.05631
G1 X153.317 Y92.381 E.04658
G1 X153.685 Y93.309 E.03794
G1 X154.192 Y94.702 E.05634
G1 X154.87 Y96.825 E.0847
G1 X155.446 Y98.975 E.08459
G1 X155.919 Y101.15 E.08459
G1 X156.289 Y103.345 E.08459
G1 X156.553 Y105.555 E.0846
G1 X156.712 Y107.775 E.08459
G1 X156.764 Y110.04 E.0861
G1 X156.712 Y112.229 E.08325
G1 X156.552 Y114.454 E.08475
G1 X156.387 Y115.935 E.05665
G1 X156.174 Y117.407 E.05654
G1 X155.769 Y119.599 E.0847
G1 X155.439 Y121.055 E.05675
G1 X155.168 Y122.111 E.04143
G1 X154.63 Y123.902 E.07107
G1 X153.917 Y126.011 E.08461
G1 X153.105 Y128.084 E.08462
G1 X152.195 Y130.116 E.08462
G1 X151.531 Y131.453 E.05674
G1 X151.249 Y131.963 E.02213
G1 X151.14 Y132.221 E.01063
G1 X150.831 Y132.729 E.02263
G1 X150.782 Y132.873 E.00577
G1 X150.151 Y133.918 E.0464
G1 X150.034 Y134.157 E.01013
G1 X149.716 Y134.627 E.02157
G1 X149.645 Y134.79 E.00674
G1 X149.306 Y135.275 E.0225
G1 X149.247 Y135.416 E.00581
G1 X148.899 Y135.896 E.02252
G1 X148.839 Y136.036 E.00578
G1 X148.483 Y136.51 E.02255
G1 X148.421 Y136.648 E.00575
G1 X148.057 Y137.118 E.02258
G1 X147.994 Y137.254 E.00571
G1 X147.71 Y137.609 E.01729
G1 X147.557 Y137.853 E.01094
G1 X147.177 Y138.313 E.02267
G1 X147.111 Y138.445 E.00563
G1 X146.723 Y138.9 E.02271
G1 X146.655 Y139.03 E.00559
G1 X146.381 Y139.341 E.01574
G1 X146.19 Y139.608 E.01248
G1 X145.894 Y139.933 E.01672
G1 X145.716 Y140.179 E.01151
G1 X145.396 Y140.519 E.01777
G1 X145.233 Y140.742 E.01048
G1 X144.888 Y141.097 E.01881
G1 X144.741 Y141.297 E.00946
G1 X144.37 Y141.666 E.01987
G1 X144.239 Y141.845 E.00841
G1 X143.843 Y142.227 E.02095
G1 X143.738 Y142.373 E.00682
G1 X143.302 Y142.762 E.02218
G1 X143.193 Y142.928 E.00757
G1 X142.764 Y143.298 E.02154
G1 X142.665 Y143.452 E.00694
G1 X142.231 Y143.814 E.02149
G1 X142.129 Y143.967 E.00699
G1 X141.69 Y144.322 E.02144
G1 X141.584 Y144.474 E.00704
G1 X141.141 Y144.821 E.0214
G1 X141.032 Y144.972 E.00708
G1 X140.584 Y145.311 E.02135
G1 X140.472 Y145.461 E.00713
G1 X140.02 Y145.792 E.0213
G1 X139.902 Y145.943 E.00724
G1 X139.465 Y146.252 E.02035
G1 X139.325 Y146.415 E.00819
G1 X138.868 Y146.728 E.02105
G1 X138.74 Y146.878 E.00751
G1 X138.281 Y147.181 E.02091
G1 X138.148 Y147.332 E.00764
G1 X137.687 Y147.626 E.02077
G1 X137.548 Y147.776 E.00777
G1 X137.086 Y148.061 E.02064
G1 X136.942 Y148.211 E.00789
G1 X136.478 Y148.486 E.02051
G1 X136.329 Y148.635 E.00801
G1 X135.864 Y148.902 E.02039
G1 X135.71 Y149.05 E.00811
G1 X135.243 Y149.307 E.02028
G1 X135.084 Y149.455 E.0082
G1 X134.615 Y149.703 E.02019
G1 X134.453 Y149.849 E.00828
G1 X134.005 Y150.077 E.0191
G1 X133.816 Y150.233 E.00932
G1 X133.342 Y150.465 E.02006
G1 X133.173 Y150.607 E.00837
G1 X132.696 Y150.831 E.02002
G1 X132.525 Y150.97 E.00839
G1 X132.045 Y151.186 E.02001
G1 X131.872 Y151.322 E.00839
G1 X131.388 Y151.531 E.02001
G1 X131.213 Y151.664 E.00838
G1 X130.726 Y151.865 E.02002
G1 X130.549 Y151.996 E.00835
G1 X130.059 Y152.189 E.02004
G1 X129.88 Y152.317 E.00833
G1 X129.006 Y152.649 E.03554
G1 X127.22 Y153.405 E.07372
G1 X126.26 Y153.769 E.03904
G1 X124.911 Y154.249 E.05442
